X:1373
T:An Ugly Customer
R:Reel
N:Collected by Kissane
B:O'Neill's 1373
Z:Transcribed by Trish O'Neil
M:C|
L:1/8
K:A
EAcA eAcA|EAce dBB2|EAcA eAcA|afed cABG|
EAcA eAcA|EAce dBBg|{b}agae faec|dBed cA A||
e|{b}agae fefg|afec dBBe|{b}agae faec|dBed cAAe|
{b}agae faec|{e}dBcA BFF2|EFED EFAB|cdBd cAA2|]


